X: 1
T: Little Hills Of Offaly, The
M: 4/4
L: 1/8
R: reel
K: Dmaj
|:d2Af dBAF|A2EA cege|d2Af dBAF|EFGE BEEE|
d2Af dBAF|A2EA cege|d2Af dBAF|EAGE D2z2:|
|:dcdf a2af|eage cAeA|dcdf a2af|eage fddA|
defg a2af|eage cAGA|((3Bcd) ed cAGE|FAGE D2z2:|
